X:1
T:Title
%%score ( 1 2 ) { 3 | 4 }
L:1/8
Q:1/4=100
M:4/4
K:F
V:1 treble nm="Grand Piano, Soprano"
V:2 treble 
V:3 bass nm="Choir Pad, The Half Was Never Told"
V:4 bass 
V:1
 F2 F2- F/ z/ [FG] [FA][GB] | [Ac]>[Bd] [Ac]6 | F2 [FA]2- [FA][FB] [FA]2 | [EG]2 F6 | %4
w: By~Philip~Paul~Bliss * * * * *||||
 [CA]2 [CE]2- [CE][DF][EG][FA] | [GB]>[GB] A4 c2 | [Fc]2 [Ac]2- [Ac][_A=B] =A2 | [E=B]2 [Ec]6 | %8
w: ||||
 [Ec]2 c2- [Fc]2 [Fc]F | A<G F6 | F2 [EG]4 [EG][GB] | [FA]<[EG] [FA]6 | [Ac]2 [Af]>[Fc] [Fc]4 | %13
w: |||||
 [F_e]2 [Fd]>[_Ec] [DB]4 | [Fd]2 c2- [Fc]2 [Fc]F | A<G F2 D2 C2- | C6 z2 |] %17
w: ||||
V:2
 x8 | x8 | x8 | x8 | x8 | z2 F6 | x8 | x8 | z2 F2 z4 | E2 z2 z4 | x8 | x8 | x8 | x8 | z2 F2 z4 | %15
 E2 z2 z4 | x8 |] %17
V:3
 A,2 A,2- A,B,C[K:treble]F | F>F F6 | A,2 C2- CD C2 | B,2 A,6 | A,2 G,2- G,[K:treble]CCC | %5
 C>C C4[K:bass] A,2 | A,2 A,2- A,=B,[K:treble] C2 | D2 C6 | B,2 A,2[K:bass] A,2 A,2 | %9
 B,2 A,2 B,2[K:treble] C2 | A,2 C2 C2 C2 | C2 C2 C2 C2 | C2 C2[K:bass] A,2 A,2 | C2 B,2 B,2 B,2 | %14
 B,2 A,2 A,2 A,2 | A,2 A,2 B,2 A,2- | A,6 z2 |] %17
V:4
 F,2 F,2- F,F,F,F, | F,>F, F,6 | F,2 F,2- F,B,, C,2 | C,2 F,6 | F,2 C,2- C,C,C,C, | C,>C, F,6 | %6
 F,2 E,2- E,E, E,2 | E,2 A,6 | G,2 F,2 F,2 F,2 | C,2 F,2 G,2 A,2 | F,2 C,2 C,2 C,2 | %11
 C,2 F,2 F,2 F,2 | F,2 F,2 F,2 F,2 | A,,2 B,,2 B,,2 B,,2 | B,,2 C,2 C,2 C,2 | C,2 F,2 F,2 F,2- | %16
 F,6 z2 |] %17

